src/pos-icons/keyboard-off-outline.svg

<svg height="24" viewBox="0 0 24 24" width="24" xmlns="http://www.w3.org/2000/svg"><path d="m1 4.27 1.47 1.47c-.29.34-.47.76-.47 1.26v10a2 2 0 0 0 2 2h11.73l3 3 1.27-1.28-17.72-17.72zm3 12.73v-9.73l1 1v1.73h1.73l1.27 1.27v1.73h1.73l1 1h-2.73v2h4.73l1 1zm1-6h2v2h-2zm12 0h2v2h-2zm2-1h-2v-2h2zm-5 1h2v2h-1.17l-.83-.83zm-1-1h-1.17l-.83-.83v-1.17h2zm9-3v10c0 .86-.55 1.58-1.3 1.87l-1.87-1.87h1.17v-10h-11.17l-2-2h13.17a2 2 0 0 1 2 2m-6 3h-2v-2h2z"/></svg>

<?xml version="1.0" encoding="UTF-8"?><!DOCTYPE svg PUBLIC "-//W3C//DTD SVG 1.1//EN" "http://www.w3.org/Graphics/SVG/1.1/DTD/svg11.dtd"><svg xmlns="http://www.w3.org/2000/svg" xmlns:xlink="http://www.w3.org/1999/xlink" version="1.1" id="mdi-keyboard-off-outline" width="24" height="24" viewBox="0 0 24 24"><path d="M1,4.27L2.47,5.74C2.18,6.08 2,6.5 2,7V17A2,2 0 0,0 4,19H15.73L18.73,22L20,20.72L2.28,3L1,4.27M4,17V7.27L5,8.27V10H6.73L8,11.27V13H9.73L10.73,14H8V16H12.73L13.73,17H4M5,11H7V13H5V11M17,11H19V13H17V11M19,10H17V8H19V10M14,11H16V13H14.83L14,12.17V11M13,10H11.83L11,9.17V8H13V10M22,7V17C22,17.86 21.45,18.58 20.7,18.87L18.83,17H20V7H8.83L6.83,5H20A2,2 0 0,1 22,7M16,10H14V8H16V10Z" /></svg>
